COLOR/action 16/16/package-reinstall.svg

<svg height="16" width="16" xmlns="http://www.w3.org/2000/svg"><path d="m5.3261719 0c-1.67759.0195-2.9064963-.04015813-3.9101563.51367188-.50182995.27685999-.89762746.74519812-1.11718748 1.33007812-.21956.58488-.29882812 1.27944-.29882812 2.15625v8c0 .87681.07924813 1.57137.29882812 2.15625.21956002.58488.61535753 1.053218 1.11718748 1.330078 1.00366.55376 2.2325663.494242 3.9101563.513672h.00391 5.3398439.0039c1.67759-.0195 2.904543.04016 3.908203-.513672.50183-.27686.897628-.745198 1.117188-1.330078.2199842-.58488.3007832-1.27944.3007832-2.15625v-8c0-.87681-.079248-1.57136-.298828-2.15625-.21955-.58488-.615358-1.05319813-1.117188-1.33007812-1.00366-.55379-2.232556-.49431188-3.910156-.51367188h-.0039-2.0039064-3.3359375z" fill="#1a7fd4"/><path d="m38.582422-1.3702345-1.297256 1.29887866c-.974146-.7235421-2.126319-1.17420346-3.346236-1.19496826h-.0016c-3.240859-.045618-5.902339 2.5778002-5.903407 5.8189767.000824 2.5374436 1.649035 4.785483 4.068737 5.5494584 2.420432.76223 5.060355-.1335304 6.517124-2.2113408l.461052-.6543098-1.315114-.9238271-.459478.6575558c-1.055584 1.5092524-2.96512 2.1570087-4.721424 1.6024925-1.756831-.5531347-2.949509-2.1781797-2.948454-4.020029-.0011-1.8418508 1.191623-3.4685189 2.948454-4.02165344 1.209906-.3819665 2.479221-.1113271 3.52808.57150654l-1.000137 1.0001366.6056.22568c.575083.2144777 1.176338.4136465 1.807066.5991082h.0017v.00165c.62501.1804713 1.244346.339539 1.857397.4773381l.649347.1460972-.152618-.6478163c-.146001-.6193103-.308343-1.2348662-.485411-1.8460309-.178775-.60980284-.375687-1.21405234-.59099-1.81193564z" fill="#fff" stroke-width=".800001" transform="translate(-26.033898 3.499611)"/><path d="m5.3261719 0c-1.67759.0195-2.9064963-.04015813-3.9101563.51367188-.50182992.27685999-.89762745.74519812-1.11718748 1.33007812-.21956.58488-.29882812 1.27944-.29882812 2.15625v.5c0-.87681.07926812-1.57137.29882812-2.15625.21956003-.58488.61535756-1.0532181 1.11718748-1.3300781 1.00366-.55383005 2.2325663-.4941719 3.9101563-.5136719h.0039062 3.3359375 2.0039064.003906c1.6776.01936 2.906496-.04011815 3.910156.5136719.50183.27688.897638.7451981 1.117188 1.3300781.21958.58489.298828 1.27944.298828 2.15625v-.5c0-.87681-.079248-1.57136-.298828-2.15625-.21955-.58488-.615358-1.05319814-1.117188-1.33007812-1.00366-.55379-2.232556-.49431188-3.910156-.51367188h-.003906-2.0039064-3.3359375z" fill="#fff" opacity=".3"/><path d="m10.673828 16c1.67759-.0195 2.906496.04016 3.910156-.513672.50183-.27686.897628-.745198 1.117188-1.330078s.298828-1.27944.298828-2.15625v-.5c0 .87681-.07927 1.57137-.298828 2.15625-.21956.58488-.615358 1.053218-1.117188 1.330078-1.00366.55383-2.232566.494172-3.910156.513672h-.003906-3.3359376-2.0039064-.003906c-1.6776-.01936-2.906496.040118-3.910156-.513672-.50183-.27688-.897638-.745198-1.117188-1.330078-.21958-.58489-.298828-1.27944-.298828-2.15625v.5c0 .87681.079248 1.57136.298828 2.15625.21955.58488.615358 1.053198 1.117188 1.330078 1.00366.55379 2.232556.494312 3.910156.513672h.00391 2.0039064 3.3359376z" opacity=".2"/></svg>

<?xml version="1.0" encoding="UTF-8" standalone="no"?>
<svg
   xmlns:dc="http://purl.org/dc/elements/1.1/"
   xmlns:cc="http://creativecommons.org/ns#"
   xmlns:rdf="http://www.w3.org/1999/02/22-rdf-syntax-ns#"
   xmlns:svg="http://www.w3.org/2000/svg"
   xmlns="http://www.w3.org/2000/svg"
   xmlns:sodipodi="http://sodipodi.sourceforge.net/DTD/sodipodi-0.dtd"
   xmlns:inkscape="http://www.inkscape.org/namespaces/inkscape"
   height="16"
   width="16"
   version="1.1"
   id="svg6"
   sodipodi:docname="package-reinstall.svg"
   inkscape:version="0.92.4 (5da689c313, 2019-01-14)">
  <metadata
     id="metadata12">
    <rdf:RDF>
      <cc:Work
         rdf:about="">
        <dc:format>image/svg+xml</dc:format>
        <dc:type
           rdf:resource="http://purl.org/dc/dcmitype/StillImage" />
        <dc:title />
      </cc:Work>
    </rdf:RDF>
  </metadata>
  <defs
     id="defs10" />
  <sodipodi:namedview
     pagecolor="#ffffff"
     bordercolor="#808080"
     borderopacity="1"
     objecttolerance="10"
     gridtolerance="10"
     guidetolerance="10"
     inkscape:pageopacity="0"
     inkscape:pageshadow="2"
     inkscape:window-width="1920"
     inkscape:window-height="1016"
     id="namedview8"
     showgrid="false"
     inkscape:zoom="14.75"
     inkscape:cx="-4.9830508"
     inkscape:cy="8"
     inkscape:window-x="0"
     inkscape:window-y="27"
     inkscape:window-maximized="1"
     inkscape:current-layer="svg6" />
  <path
     d="M 5.3261719,0 C 3.6485819,0.0195 2.4196756,-0.04015813 1.4160156,0.51367188 0.91418565,0.79053187 0.51838814,1.25887 0.29882812,1.84375 0.07926812,2.42863 0,3.12319 0,4 v 8 c 0,0.87681 0.07924813,1.57137 0.29882812,2.15625 0.21956002,0.58488 0.61535753,1.053218 1.11718748,1.330078 1.00366,0.55376 2.2325663,0.494242 3.9101563,0.513672 h 0.00391 5.3398439 0.0039 c 1.67759,-0.0195 2.904543,0.04016 3.908203,-0.513672 0.50183,-0.27686 0.897628,-0.745198 1.117188,-1.330078 C 15.919201,13.57137 16,12.87681 16,12 V 4 C 16,3.12319 15.920752,2.42864 15.701172,1.84375 15.481622,1.25887 15.085814,0.79055187 14.583984,0.51367188 13.580324,-0.04011812 12.351428,0.01936 10.673828,0 h -0.0039 -2.0039064 -3.3359375 z"
     id="path4"
     inkscape:connector-curvature="0"
     style="fill:#1a7fd4;fill-opacity:1"
     sodipodi:nodetypes="ccsssccccccccssccccccc" />
  <g
     id="g848"
     transform="translate(-26.033898,3.4991565)">
    <g
       id="g832"
       transform="translate(0,4.54e-4)"
       style="fill:#4bb9f4">
      <path
         id="path824"
         d="m 38.582422,-1.3702345 -1.297256,1.29887866 C 36.31102,-0.79489794 35.158847,-1.2455593 33.93893,-1.2663241 h -0.0016 c -3.240859,-0.045618 -5.902339,2.5778002 -5.903407,5.8189767 8.24e-4,2.5374436 1.649035,4.785483 4.068737,5.5494584 2.420432,0.76223 5.060355,-0.1335304 6.517124,-2.2113408 L 39.080836,7.2364604 37.765722,6.3126333 37.306244,6.9701891 C 36.25066,8.4794415 34.341124,9.1271978 32.58482,8.5726816 30.827989,8.0195469 29.635311,6.3945019 29.636366,4.5526526 29.635266,2.7108018 30.827989,1.0841337 32.58482,0.53099916 33.794726,0.14903266 35.064041,0.41967206 36.1129,1.1025057 l -1.000137,1.0001366 0.6056,0.22568 c 0.575083,0.2144777 1.176338,0.4136465 1.807066,0.5991082 h 0.0017 v 0.00165 c 0.62501,0.1804713 1.244346,0.339539 1.857397,0.4773381 L 40.033873,3.5525158 39.881255,2.9046995 C 39.735254,2.2853892 39.572912,1.6698333 39.395844,1.0586686 39.217069,0.44886576 39.020157,-0.15538374 38.804854,-0.75326704 Z"
         inkscape:connector-curvature="0"
         style="fill:#ffffff;stroke-width:0.80000103;fill-opacity:1" />
      <g
         id="g830"
         transform="translate(0,-4.54e-4)" />
    </g>
  </g>
  <path
     style="fill:#ffffff;fill-opacity:1;opacity:0.3"
     d="M 5.3261719 0 C 3.6485819 0.0195 2.4196756 -0.040158135 1.4160156 0.51367188 C 0.91418568 0.79053187 0.51838815 1.25887 0.29882812 1.84375 C 0.079268125 2.42863 -3.7007434e-17 3.12319 0 4 L 0 4.5 C -3.7007434e-17 3.62319 0.079268125 2.92863 0.29882812 2.34375 C 0.51838815 1.75887 0.91418568 1.2905319 1.4160156 1.0136719 C 2.4196756 0.45984185 3.6485819 0.5195 5.3261719 0.5 L 5.3300781 0.5 L 8.6660156 0.5 L 10.669922 0.5 L 10.673828 0.5 C 12.351428 0.51936 13.580324 0.45988185 14.583984 1.0136719 C 15.085814 1.2905519 15.481622 1.75887 15.701172 2.34375 C 15.920752 2.92864 16 3.62319 16 4.5 L 16 4 C 16 3.12319 15.920752 2.42864 15.701172 1.84375 C 15.481622 1.25887 15.085814 0.79055186 14.583984 0.51367188 C 13.580324 -0.040118125 12.351428 0.01936 10.673828 0 L 10.669922 0 L 8.6660156 0 L 5.3300781 0 L 5.3261719 0 z "
     id="path850" />
  <path
     id="path855"
     d="m 10.673828,16 c 1.67759,-0.0195 2.906496,0.04016 3.910156,-0.513672 0.50183,-0.27686 0.897628,-0.745198 1.117188,-1.330078 C 15.920732,13.57137 16,12.87681 16,12 v -0.5 c 0,0.87681 -0.07927,1.57137 -0.298828,2.15625 -0.21956,0.58488 -0.615358,1.053218 -1.117188,1.330078 C 13.580324,15.540158 12.351418,15.4805 10.673828,15.5 H 10.669922 7.3339844 5.330078 5.326172 C 3.648572,15.48064 2.419676,15.540118 1.416016,14.986328 0.914186,14.709448 0.518378,14.24113 0.298828,13.65625 0.079248,13.07136 0,12.37681 0,11.5 V 12 c 0,0.87681 0.079248,1.57136 0.298828,2.15625 0.21955,0.58488 0.615358,1.053198 1.117188,1.330078 C 2.419676,16.040118 3.648572,15.98064 5.326172,16 h 0.00391 2.0039064 3.3359376 z"
     style="opacity:0.2;fill:#000000;fill-opacity:1"
     inkscape:connector-curvature="0" />
</svg>
